X:124
T:Trip to the Cottage
O:No 124 Wm Clarke MS  Feltwell, Norfolk
N:Spelt Cotage in MS
I:abc2nwc
M:6/8
L:1/8
K:G
dBB BGG|cAA AFD|DGG FAA|GBB ABc|
dBB BGG|cAA AFD|DGG FAA|BGG G3:|
|:gfe dcB|edc Bcd|ecA dBG|GFG AFD|
gfe dcB|edc Bcd|efg fed|ed^c d3:|

